packages/icons/svgs/duotone/Source=file-text.svg

<svg width="24" height="24" viewBox="0 0 24 24" fill="none" xmlns="http://www.w3.org/2000/svg">
<g opacity="0.55">
<path fill-rule="evenodd" clip-rule="evenodd" d="M2 0H15.4142L22 6.58579V24H2V0ZM4 2V22H20V7.41421L14.5858 2H4Z" fill="black" style="fill:black;fill-opacity:1;"/>
<path d="M14 1V6C14 7.10457 14.8954 8 16 8H21L14 1Z" fill="black" style="fill:black;fill-opacity:1;"/>
</g>
<path fill-rule="evenodd" clip-rule="evenodd" d="M6 7C6 6.44772 6.44772 6 7 6H11C11.5523 6 12 6.44772 12 7C12 7.55228 11.5523 8 11 8H7C6.44772 8 6 7.55228 6 7Z" fill="black" style="fill:black;fill-opacity:1;"/>
<path fill-rule="evenodd" clip-rule="evenodd" d="M6 12C6 11.4477 6.44772 11 7 11H17C17.5523 11 18 11.4477 18 12C18 12.5523 17.5523 13 17 13H7C6.44772 13 6 12.5523 6 12Z" fill="black" style="fill:black;fill-opacity:1;"/>
<path fill-rule="evenodd" clip-rule="evenodd" d="M6 17C6 16.4477 6.44772 16 7 16H17C17.5523 16 18 16.4477 18 17C18 17.5523 17.5523 18 17 18H7C6.44772 18 6 17.5523 6 17Z" fill="black" style="fill:black;fill-opacity:1;"/>
</svg>

<svg xmlns="http://www.w3.org/2000/svg" width="24" height="24" viewBox="0 0 24 24"><g opacity=".55"><path fill-rule="evenodd" d="M2 0h13.414L22 6.586V24H2zm2 2v20h16V7.414L14.586 2z" clip-rule="evenodd"/><path d="M14 1v5a2 2 0 0 0 2 2h5z"/></g><path fill-rule="evenodd" d="M6 7a1 1 0 0 1 1-1h4a1 1 0 1 1 0 2H7a1 1 0 0 1-1-1m0 5a1 1 0 0 1 1-1h10a1 1 0 1 1 0 2H7a1 1 0 0 1-1-1m0 5a1 1 0 0 1 1-1h10a1 1 0 1 1 0 2H7a1 1 0 0 1-1-1" clip-rule="evenodd"/></svg>
